X: 2
T: South Wind, The (harmony)
M: 3/4
L: 1/8
R: waltz
Z: Johnny Kerr
K: Gmaj
fe|d3c B2|d3e g2|g3 ae2|f4 ed|
g3e d2|c3B c2|e6-|d2 z2 fe|
d3c B2|d3e g2|g3 ae2|f4 ed|
g3e d2|c3B c2|e6-|d2 z2 ef|
g6|g4 g2|g4 e2|f4 fe|
d3c B2|d3e g2|g3a e2|f3e d2|
b4 b2|b3a g2|g3a e2|f4 fe|
d3c B2|de3 e2|d6-|d2 z4||
